src/pos-icons/newspaper-variant-outline.svg

<svg height="24" viewBox="0 0 24 24" width="24" xmlns="http://www.w3.org/2000/svg"><path d="m20 6v12h-16v-12zm2-2h-20v14s0 2 2 2h16s2 0 2-2zm-12 9h-4v-5h4zm8 0h-7v-2h7zm0-3h-7v-2h7z"/></svg>

<?xml version="1.0" encoding="UTF-8"?><!DOCTYPE svg PUBLIC "-//W3C//DTD SVG 1.1//EN" "http://www.w3.org/Graphics/SVG/1.1/DTD/svg11.dtd"><svg xmlns="http://www.w3.org/2000/svg" xmlns:xlink="http://www.w3.org/1999/xlink" version="1.1" id="mdi-newspaper-variant-outline" width="24" height="24" viewBox="0 0 24 24"><path d="M20 6V18H4V6H20M22 4H2V18C2 18 2 20 4 20H20C20 20 22 20 22 18V4M10 13H6V8H10V13M18 13H11V11H18V13M18 10H11V8H18V10Z" /></svg>
